Unwatched/Unwatched/Assets.xcassets/unwatched-logo.imageset/unwatched-logo.svg

<svg width="698" height="681" viewBox="0 0 698 681" fill="none" xmlns="http://www.w3.org/2000/svg">
<path fill-rule="evenodd" clip-rule="evenodd" d="M86.6172 122.342C113.13 120.519 146.101 120.519 189.108 120.519H507.977C550.991 120.519 583.966 120.519 610.481 122.343C599.055 110.06 585.365 99.9199 570.033 92.5458C542.216 79.1665 506.167 79.1665 434.067 79.1665H263.03C190.931 79.1665 154.881 79.1665 127.064 92.5458C111.733 99.9197 98.043 110.059 86.6172 122.342Z" fill="#0CBAF7"/>
<path fill-rule="evenodd" clip-rule="evenodd" d="M16.2596 256.568C0 290.373 0 334.183 0 421.804C0 509.425 0 553.236 16.2596 587.041C32.4398 620.681 59.5782 647.82 93.2185 664C127.024 680.259 170.834 680.259 258.455 680.259H438.635C526.256 680.259 570.067 680.259 603.872 664C637.512 647.82 664.651 620.681 680.831 587.041C697.091 553.236 697.091 509.425 697.091 421.804C697.091 334.183 697.091 290.373 680.831 256.568C664.651 222.927 637.512 195.789 603.872 179.609C570.067 163.349 526.256 163.349 438.635 163.349H258.455C170.834 163.349 127.024 163.349 93.2185 179.609C59.5782 195.789 32.4398 222.927 16.2596 256.568ZM526.843 399.444C518.728 373.488 487.872 354.095 426.162 315.311L398.318 297.811C329.225 254.386 294.678 232.674 266.273 237.98C250.669 240.894 236.421 248.757 225.644 260.403C206.025 281.601 206.025 322.379 206.025 403.935V403.935L206.025 438.934C206.025 520.491 206.025 561.269 225.644 582.467C236.421 594.112 250.669 601.975 266.273 604.89C294.678 610.195 329.225 588.483 398.318 545.058L426.162 527.559C487.872 488.774 518.728 469.382 526.843 443.426C531.32 429.106 531.32 413.763 526.843 399.444Z" fill="#0CBAF7"/>
<path fill-rule="evenodd" clip-rule="evenodd" d="M151.242 42.9651C180.54 38.3985 219.132 38.3985 276.513 38.3985H420.573C477.963 38.3985 516.558 38.3985 545.858 42.9672C535.46 29.3795 521.955 18.3305 506.349 10.8242C483.844 0 454.679 0 396.348 0H300.75C242.42 0 213.254 0 190.75 10.8242C175.144 18.3301 161.64 29.3784 151.242 42.9651Z" fill="#0CBAF7"/>
</svg>

<?xml version="1.0" encoding="UTF-8"?>
<svg viewBox="0 0 698 681" xmlns="http://www.w3.org/2000/svg">
<path d="m86.617 122.34c26.513-1.823 59.484-1.823 102.49-1.823h318.87c43.014 0 75.989 0 102.5 1.824-11.426-12.283-25.116-22.423-40.448-29.797-27.817-13.379-63.866-13.379-135.97-13.379h-171.04c-72.099 0-108.15 0-135.97 13.379-15.331 7.3739-29.021 17.513-40.447 29.796z" clip-rule="evenodd" fill="#0CBAF7" fill-rule="evenodd"/>
<path d="m16.26 256.57c-16.26 33.805-16.26 77.615-16.26 165.24s0 131.43 16.26 165.24c16.18 33.64 43.319 60.779 76.959 76.959 33.806 16.259 77.616 16.259 165.24 16.259h180.18c87.621 0 131.43 0 165.24-16.259 33.64-16.18 60.779-43.319 76.959-76.959 16.26-33.805 16.26-77.616 16.26-165.24s0-131.43-16.26-165.24c-16.18-33.641-43.319-60.779-76.959-76.959-33.805-16.26-77.616-16.26-165.24-16.26h-180.18c-87.621 0-131.43 0-165.24 16.26-33.64 16.18-60.779 43.318-76.959 76.959zm510.58 142.88c-8.115-25.956-38.971-45.349-100.68-84.133l-27.844-17.5c-69.093-43.425-103.64-65.137-132.04-59.831-15.604 2.914-29.852 10.777-40.629 22.423-19.619 21.198-19.619 61.976-19.619 143.53v34.999c0 81.557 0 122.34 19.619 143.53 10.777 11.645 25.025 19.508 40.629 22.423 28.405 5.305 62.952-16.407 132.04-59.832l27.844-17.499c61.71-38.785 92.566-58.177 100.68-84.133 4.477-14.32 4.477-29.663 0-43.982z" clip-rule="evenodd" fill="#0CBAF7" fill-rule="evenodd"/>
<path d="m151.24 42.965c29.298-4.5666 67.89-4.5666 125.27-4.5666h144.06c57.39 0 95.985 0 125.28 4.5687-10.398-13.588-23.903-24.637-39.509-32.143-22.505-10.824-51.67-10.824-110-10.824h-95.598c-58.33 0-87.496 0-110 10.824-15.606 7.5059-29.11 18.554-39.508 32.141z" clip-rule="evenodd" fill="#0CBAF7" fill-rule="evenodd"/>
</svg>
